X:41
T:Country lad am I - Fone
%%VWML:SBG-1-2-833-0
F:http://www.vwml.org/record/SBG/1/2/833
Z:Original Sibelius transcriptions by M. & S. Graebe
M:4/4
I:linebreak $
K:C
V:1 treble nm="P1"
V:1
 G | c B B A | A G E C | E D C B, | C3 C | D3/2 C/ D E | F E F ^F |$ G3/2 G/ B A | G3 G | c B B A | %10
 A G E G/>G/ | G G A G | c3 G | c B B A |$ A G E C | E D C B, | C3 G/>G/ |[M:6/8] c c/ B d/ | %18
 c3/2 E G/ |$ c B/ B A/ | G3/2 E G/ | c B/ B A/ | A G/ E C/ | E D/ C B,/ | C3 | %25

